X: 91
T:Untitled. HA.090
M:6/4
Q:90
C:in Hand C
S:Henry Atkinson's original MS,Hartburn,N'umberland,1694.
O:England
A:Hartburn,Northumberland
H:1/8
Z:vmp.Chris Partington.Jan.2004
K:Bb
G2|B3AF2 e2d4|c3d B>c A4F2|B3AF2 e2d4|g3a =e>g^f6:|!
|:A3AB2 c2d4|e3f c>d c4B2|d3d=e2 ^f2g4|a3b =e>f e4d2|!
f2c3d e4d2|c2A3G ^F6|e2f3g =B3cd2|cBA3G G6|]
